X:1
T:James Gibb editions
T:Amor opra che puoi - Vecchi
T:#
%%score [ 1 2 3 ]
L:1/8
Q:1/4=90
M:4/4
K:Bb
V:1 treble-8 nm="Tenor I" snm="T I"
V:2 treble-8 nm="Tenor II" snm="T II"
V:3 bass nm="Bass" snm="B"
V:1
"^Orazio Vecchi\n(1550-1605)" d4 d2 c2- || cB c2"^Amor opra che puoi" d2 dA | %2
w: A- mor o\-|* pra che puo- i Che'l|
w: A- mor fa|* ch'el- la~~in- ten- da Le|
w: A- mor fal\-|* le sa- pe- re Che|
 AB c3 d !courtesy!_e2- | e2 d2 c4- |[M:4/4][K:treble-8] c2 B2 A4 | G2 z2 | %6
w: mio con- ten- to sia|* d'e- ter\-|* ne tem-|pre,|
w: tue dol- cez- ze~~e~~i tuoi|* di- let\-|* ti ca-|ri,|
w: chi non è sog- get\-|* to~~al tuo|* gran re-|gno,|
 z FGA (D/=E/F/G/ A/B/c/A/ | d3) B A2 G2 | d2 c2 B2 A2 | G (FF/D/ G2 ^F) G2 :| %10
w: Ch'io gio- i- rò * * * * * * *|* mai sem- pre,|ch'io gio- i- rò|mai sem\- * * * * pre.|
w: E che da me * * * * * * *|* l'im- pa- ri,|e che da me|l'im- pa\- * * * * ri.|
w: E- gli~~è di vi\- * * * * * * *|* ta~~in- de- gno,|e- gli~~è di vi-|ta~~in- de\- * * * * gno.|
V:2
 B4 B2 A2- || AG G2 ^F2 FF | ^FG (A3 G/=F/ G2- | G)A B2 A2 G2 |[M:4/4][K:treble-8] ^F2 (G4 F2) | %5
w: A- mor o\-|* pra che puo- i Che'l|mio con- ten\- * * *|* to sia d'e- ter-|ne tem\- *|
w: A- mor fa|* ch'el- la~~in- ten- da Le|tue dol- cez\- * * *|* ze~~e~~i tuoi di- let-|ti ca\- *|
w: A- mor fal\-|* le sa- pe- re Che|chi non è * * *|* sog- get- to~~al tuo|gran re\- *|
 G2 z2 | z4 d2 c2 | B2 (AG ^F2) G2 | z ^FGA (D/=E/F/G/ A/B/c/A/ | d3) B A2 G2 :| %10
w: pre,|Ch'io gio-|i- rò mai sem- pre,|ch'io gio- i- rò * * * * * * *|* mai sem- pre.|
w: ri,|E che|da me l'im- pa- ri,|e che da me * * * * * * *|* l'im- pa- ri.|
w: gno,|E- gli~~è|di vi- ta~~in- de- gno,|e- gli~~è di vi\- * * * * * * *|* ta~~in- de- gno.|
V:3
 G,4 B,2 F,2- || F,G, E,2 D,2 D,D, | D,G, !courtesy!=F,3 D, C,2- | C,2 B,,2 F,2 E,2 |[M:4/4] D,8 | %5
w: A- mor o\-|* pra che puo- i Che'l|mio con- ten- to sia|* d'e- ter- ne|tem-|
w: A- mor fa|* ch'el- la~~in- ten- da Le|tue dol- cez- ze~~e~~i tuoi|* di- let- ti|ca-|
w: A- mor fal\-|* le sa- pe- re Che|chi non è sog- get\-|* to~~al tuo gran|re-|
 G,2 z2 | D2 C2 B,2 A,2 | G,2 D4 G,2 | z D,E,F, (B,,/C,/D,/=E,/ F,/G,/A,/F,/ | B,3) C D2 G,2 :| %10
w: pre,|Ch'io gio- i- rò|mai sem- pre,|ch'io gio- i- rò * * * * * * *|* mai sem- pre.|
w: ri,|E che da me|l'im- pa- ri,|e che da me * * * * * * *|* l'im- pa ri.|
w: gno,|E- gli~~è di vi-|ta~in- de- gno,|e- gli~~è di vi\- * * * * * * *|* ta~~in- de- gno.|

